X: 245
T:A Granddaughter's Dream
R:waltz
D:Saffron and Blue - Manus McGuire
Z:Alf Warnock - alf0@rogers.com
M:3/4
L:1/8
K:D
"D"DE FG AB|"A7"A4 (3ABc|"Bm"d3B ed|"A7"c2 A2 A2|
"D"d2 e2 f2| "G"ef g2 e2| "E7"d3B ed|"A7"c2 AG FE|
"D"D3d cd|"F#m"A2 D3E|"Bm"F3G A2| "A7"A6|
"D"f2 ed cd|"F#m"A3d cd|"A7"A2 d2 c2| "D"d6:|
"Dm"=f3e d=f|"C"e3=f g2| "Am"a2 g=f eg|"Dm"=f2 d3e|
"Dm"=f3e d2| "A"e2 A2 A2| "G"g2 A2 A2| "A7"a2 A2 A2|
"D"f2 ed cd|"F#m"A4 cd|"F#7"cd ef ge|"B7"f2 B2 a2|
"G"g2 fg ed|"A7"e2 A3G|"D"FA df "A"ec|"D"d6:|
